X: 9
T: The Bear Dance
R: polka
M: 2/4
L: 1/8
K: Emin
BE E/F/G/A/|BE EF|GA/G/ FG|AB/A/ GA|
|1BE E/F/G/A/|BE EF|GA/G/ F/E/D|E2 E2:|
|2Be Be|BE EF|GA/G/ F/E/D|E2 E2||
|:G>B A/G/F|G>B A/G/F|d/A/F/A/ d=F|
Ec B^d|eB GF|EE/F/ GB|c/B/A/G/ F/E/D|E2 E2:|


Tune 4195	Setting 21504

